X:1
T:Title
%%score [ 1 2 3 4 ]
L:1/8
Q:1/4=72
M:4/4
K:D
V:1 treble nm="Soprano"
V:2 treble nm="Alto"
V:3 treble-8 nm="Tenor"
V:4 bass nm="Bass"
V:1
"^Molto Adagio" z8 | z4!pp! d4- | d4 c2 B2 | B4- B z B2 | (B4 A2) G2 | G6- G z | z8 | z4 d4- | %8
w: |Cal-|* me des|nuits, _ frai-|cheur _ des|soirs, _||Vas-|
 d4 c2 B2 | B6 B2 | B4 e4 | e8 | e6- e z |!pp!"^sempre" e6 e2 | e8 | e4 E4 | E6 E2 | =F8- | %18
w: * te scin-|til- le-|ment des|mon-|­des, _|Grand si-|len-|ce des|an- tres|noirs|
 F2 z2 =F2 F2 | G6 G2 | G4 F2 F2 | (B8- | B4 A4- | A4 G2 F2- | F2 D2 E4) | D8 | z8 |!f! A2 B4 BB | %28
w: _ Vous char-|­mez les|â- mes pro-|fon-||||des.||L'é- clat du- so-|
 d4 d3 d | d2 z d d2 e2- | e2 =fe d3 d | d2 c2 z4 | z8 | z8 |!pp! c6 c2 | (d8- | d4 c2 B2) | %37
w: leil, la gai-|té, Le bruit plai-|* sent aux plus fu-|ti- les;|||Le po-|è-||
 B6 z2 | B4 A2 G2 | G6 z2 | =F4 F4 | G6 G2 | G4 F2 F2 | (B8- | B4 A4- | A4 G2 F2- | F2 D2 E4) | %47
w: te|seul est han-|­té|Par l'a-|mour des|cho- ses tran-|quil-||­- * *||
 D6 z2 |!ppp! A6 A2 | A8- | A8- | A8- | A4 A4 | A8 | G4 G4 | F8- | F8 | F8 |] %58
w: les,|par l'a-|mour|_||* des|cho-|ses tran-|quil-||les.|
V:2
 z8 |!pp! F8- | F4 F2 F2 | F4- F z F2 | (G4 F2) E2 | E6- E z | z8 | G8- | G4 G2 G2 | G6 G2 | %10
w: |Cal-|* me des|nuits, _ frai-|cheur _ des|soirs, _||Vas-|* te scin-|til- le-|
 G4 G4 | G8 | G6- G z |!pp!"^sempre" G6 G2 | G8 | G4 G4 | =C6 C2 | D8- | D2 z2 D2 D2 | _E6 D2 | %20
w: ment des|mon-|­des, _|Grand si-|len-|ce des|an- tres|noirs|_ Vous char-|­mez les|
 C4 D2 D2 | (D8 | C4 D4- | D2 F2 E2 D2- | D2 B,2 C4) | A,8 | z8 |!f! F2 F4 FF | F4 G3 G | %29
w: â- mes pro-|fon-||||des.||L'é- clat du- so-|leil, la gai-|
 G2 z G G2 G2- | G2 AG =F3 F | =F2 A2 z4 | z8 |!pp! E6 E2 | F8- | F8- | F8 | F6 z2 | G4 F2 E2 | %39
w: té, Le bruit plai-|* sent aux plus fu-|ti- les;||Le po-|è-|||te|seul est han-|
 E6 z2 | =C4 D4 | _E4 D4 | ^C4 D2 D2 | (D8 | C4 D4- | D2 F2 E2 D2- | D2 B,2 C4) | A,6 z2 | z8 | %49
w: ­té|Par l'a-|mour des|cho- ses tran-|quil-||­- * * *||les,||
!ppp! G6 G2 | (F8 | E8- | E4) D4 | D8 | D4 D4 | D8- | D8 | D8 |] %58
w: par l'a-|mour|_|* des|cho-|ses tran-|quil-||les.|
V:3
 z4!pp! A4- | A8- | A4 A2 B2 | B4- B z B2 | B6 B2 | B6- B z | z4 B4- | B8- | B4 B2 B2 | B6 B2 | %10
w: Cal-||* me des|nuits, _ frai-|cheur des|soirs, _|Vas-||* te scin-|til- le-|
 B4 B4 | =c8 | =c6- c z |!pp!"^sempre" =c6 c2 | =c8 | =c4 c4 | G6 G2 | _B8- | B2 z2 _B2 B2 | %19
w: ment des|mon-|­des, _|Grand si-|len-|ce des|an- tres|noirs|_ Vous char-|
 _B6 B2 | A4 A2 A2 | (A4 G2 F2 | E4 F4 | D4 E2 F2 | G8) | F8 | z8 |!f! d2 d4 dd | d4 d3 d | %29
w: ­mez les|â- mes pro-|fon- * *||||des.||L'é- clat du- so-|leil, la gai-|
 d2 z d B2 =c2- | c2 =cc A3 A | d2 e2 z4 |!pp! A6 A2 | (A8- | A8- | A8- | A6 B2) | B6 z2 | %38
w: té, Le bruit plai-|* sent aux plus fu-|ti- les;|Le po-|è-||||te|
 B4 B2 B2 | =c6 z2 | A4 _B4 | _B6 B2 | A4 A2 A2 | (A4 G2 F2 | E4 F4 | D4 E2 F2 | G8) | F6 z2 | z8 | %49
w: seul est han-|­té|Par l'a-|mour des|cho- ses tran-|quil- * *||­- * *||les,||
 z8 |!ppp! d6 d2 | =c8- | c4 =c4 | B8 | B4 B4 | A8- | A8 | A8 |] %58
w: |par l'a-|­mour|_ des|cho-|ses tran-|quil-||les.|
V:4
!pp! D,8- | D,8- | D,4 D,2 D,2 | D,4- D, z D,2 | E,6 E,2 | E,6- E, z | E,8- | E,8- | E,4 E,2 E,2 | %9
w: Cal-||* me des|nuits, _ frai-|cheur des|soirs, _|Vas-||* te scin-|
 E,6 E,2 | E,4 E,4 | E,8 | E,6- E, z |!pp!"^sempre" =C,6 C,2 | =C,8 | =C,4 C,4 | =C,6 C,2 | %17
w: til- le-|ment des|mon-|­des, _|Grand si-|len-|ce des|an- tres|
 _B,,8- | B,,2 z2 _B,,2 B,,2 | _E,6 E,2 | =E,4 D,2 D,2 | G,,8- | G,,4 F,,4 | B,,8 | A,,8 | D,8 | %26
w: noirs|_ Vous char-|­mez les|â- mes pro-|fon-||||des.|
 z8 |!f! D,2 B,,4 B,B, | B,4 B,3 B, | B,2 z B, G,2 =C,2- | C,2 =F,=C, D,3 D, | D,2 A,2 z4 | z8 | %33
w: |L'é- clat du- so-|leil, la gai-|té, Le bruit plai-|* sent aux plus fu-|ti- les;||
 z8 | z8 |!pp! D,6 D,2 | D,8 | D,6 z2 | E,4 E,2 E,2 | =C,6 z2 | =F,4 _B,,4 | _E,6 E,2 | %42
w: ||Le po-|è-|te|seul est han-|­té|Par l'a-|mour des|
 =E,4 D,2 D,2 | (G,,8- | G,,4 F,,4 | B,,8 | A,,8) | D,6 z2 | z8 | z8 | z8 |!ppp! A,6 A,2 | %52
w: cho- ses tran-|quil-||­-||les,||||par l'a-|
 G,4 F,4 | G,8 | G,4 [G,,G,]4 | [D,,D,]8- | [D,,D,]8 | [D,,D,]8 |] %58
w: mour des|cho-|ses tran-|quil-||les.|

